src/containers/site/SiteExchangeScreen/asset/exchange_feature_3.svg

<svg width="84" height="70" viewBox="0 0 84 70" fill="none" xmlns="http://www.w3.org/2000/svg">
<path d="M26.8422 36.8196C27.2364 36.8442 27.606 36.8442 28.0002 36.8688V11.1475H11.1973V41.6639C15.1886 38.8606 20.461 36.5491 26.8422 36.8196Z" fill="url(#paint0_linear)"/>
<path d="M26.5958 42.7212C21.7668 42.5245 17.0857 44.2704 12.7248 47.9098C12.1581 48.377 11.6654 48.8442 11.1973 49.2868V69.9671H28.0002V42.795C27.532 42.7704 27.0639 42.7458 26.5958 42.7212Z" fill="url(#paint1_linear)"/>
<path d="M50.9259 41.5361V19.9995H34.123V37.8044C40.2086 38.8288 44.668 40.5849 50.9259 41.5361Z" fill="url(#paint2_linear)"/>
<path d="M40.603 45.2678C38.4595 44.7068 36.3899 44.1702 34.0986 43.7556V69.9507H50.9015V47.4385C46.9841 46.9263 43.7566 46.0727 40.603 45.2678Z" fill="url(#paint3_linear)"/>
<path d="M57.2317 47.7676C56.8621 47.7676 56.4925 47.7676 56.123 47.7429C56.0983 47.7429 56.0737 47.7429 56.0244 47.7429V69.9507H72.8273V42.764C68.5157 45.6478 63.2679 47.7676 57.2317 47.7676Z" fill="url(#paint4_linear)"/>
<path d="M56.3693 41.8275C62.9969 42.0986 68.5896 39.0176 72.8273 35.3697V0H56.0244V41.8275C56.1476 41.8275 56.2708 41.8275 56.3693 41.8275Z" fill="url(#paint5_linear)"/>
<path d="M1.99419 51.9507C1.62233 51.9507 1.27527 51.8507 0.928202 51.6507C0.0109606 51.0507 -0.286523 49.8256 0.308444 48.9006C0.70509 48.2756 9.72877 34.1003 25.421 34.1003C25.7929 34.1003 26.1647 34.1003 26.5366 34.1253C33.0069 34.4004 37.5683 35.6004 41.981 36.7754C46.3689 37.9504 50.5336 39.0254 56.5825 39.3004C70.7873 39.9005 80.1829 23.1501 80.282 22.9751C80.8274 22.0001 82.0173 21.6751 82.9842 22.2001C83.951 22.7501 84.2733 23.9502 83.7527 24.9252C83.3312 25.7002 73.3903 43.3255 57.351 43.3255C57.0287 43.3255 56.7312 43.3255 56.4089 43.3005C49.9387 43.0255 45.3772 41.8255 40.9646 40.6505C36.5767 39.4754 32.4119 38.4004 26.3631 38.1254C12.2574 37.5254 3.72951 50.9007 3.63035 51.0257C3.30807 51.6257 2.66352 51.9507 1.99419 51.9507Z" fill="url(#paint6_linear)"/>
<defs>
<linearGradient id="paint0_linear" x1="11.1845" y1="41.671" x2="27.9885" y2="41.671" gradientUnits="userSpaceOnUse">
<stop stop-color="#FFB833"/>
<stop offset="1" stop-color="#FF964D"/>
</linearGradient>
<linearGradient id="paint1_linear" x1="11.1845" y1="69.9736" x2="27.9885" y2="69.9736" gradientUnits="userSpaceOnUse">
<stop stop-color="#FFB833"/>
<stop offset="1" stop-color="#FF964D"/>
</linearGradient>
<linearGradient id="paint2_linear" x1="34.1109" y1="41.5362" x2="50.915" y2="41.5362" gradientUnits="userSpaceOnUse">
<stop stop-color="#FFB833"/>
<stop offset="1" stop-color="#FF964D"/>
</linearGradient>
<linearGradient id="paint3_linear" x1="34.1112" y1="69.9507" x2="50.9152" y2="69.9507" gradientUnits="userSpaceOnUse">
<stop stop-color="#FFB833"/>
<stop offset="1" stop-color="#FF964D"/>
</linearGradient>
<linearGradient id="paint4_linear" x1="56.0377" y1="69.9603" x2="72.8417" y2="69.9603" gradientUnits="userSpaceOnUse">
<stop stop-color="#FFB833"/>
<stop offset="1" stop-color="#FF964D"/>
</linearGradient>
<linearGradient id="paint5_linear" x1="56.0377" y1="41.846" x2="72.8417" y2="41.846" gradientUnits="userSpaceOnUse">
<stop stop-color="#FFB833"/>
<stop offset="1" stop-color="#FF964D"/>
</linearGradient>
<linearGradient id="paint6_linear" x1="-8.66798" y1="47.8068" x2="49.1789" y2="88.3012" gradientUnits="userSpaceOnUse">
<stop stop-color="#658BF5"/>
<stop offset="1" stop-color="#8DB0FF"/>
</linearGradient>
</defs>
</svg>

<svg width="84" height="70" fill="none" xmlns="http://www.w3.org/2000/svg"><path d="M26.842 36.82c.394.024.764.024 1.158.049V11.148H11.197v30.516c3.992-2.803 9.264-5.115 15.645-4.844z" fill="url(#paint0_linear)"/><path d="M26.596 42.721c-4.83-.196-9.51 1.55-13.871 5.189-.567.467-1.06.934-1.528 1.377v20.68H28V42.795l-1.404-.074z" fill="url(#paint1_linear)"/><path d="M50.926 41.536V20H34.123v17.805c6.086 1.025 10.545 2.78 16.803 3.732z" fill="url(#paint2_linear)"/><path d="M40.603 45.268c-2.144-.561-4.213-1.098-6.504-1.512V69.95h16.803V47.439c-3.918-.513-7.145-1.366-10.299-2.171z" fill="url(#paint3_linear)"/><path d="M57.232 47.768c-.37 0-.74 0-1.109-.025h-.099V69.95h16.803V42.764c-4.311 2.884-9.56 5.004-15.595 5.004z" fill="url(#paint4_linear)"/><path d="M56.37 41.828c6.627.27 12.22-2.81 16.457-6.458V0H56.024v41.828h.345z" fill="url(#paint5_linear)"/><path d="M1.994 51.95c-.372 0-.719-.1-1.066-.3-.917-.6-1.215-1.824-.62-2.75.397-.624 9.42-14.8 25.113-14.8.372 0 .744 0 1.116.025 6.47.275 11.031 1.475 15.444 2.65 4.388 1.175 8.553 2.25 14.602 2.525 14.204.6 23.6-16.15 23.699-16.325a1.983 1.983 0 012.702-.775c.967.55 1.29 1.75.769 2.725-.422.775-10.363 18.4-26.402 18.4-.322 0-.62 0-.942-.025-6.47-.274-11.032-1.474-15.444-2.65-4.388-1.175-8.553-2.25-14.602-2.525-14.106-.6-22.633 12.776-22.733 12.9-.322.6-.966.926-1.636.926z" fill="url(#paint6_linear)"/><defs><linearGradient id="paint0_linear" x1="11.184" y1="41.671" x2="27.988" y2="41.671" gradientUnits="userSpaceOnUse"><stop stop-color="#FFB833"/><stop offset="1" stop-color="#FF964D"/></linearGradient><linearGradient id="paint1_linear" x1="11.184" y1="69.974" x2="27.988" y2="69.974" gradientUnits="userSpaceOnUse"><stop stop-color="#FFB833"/><stop offset="1" stop-color="#FF964D"/></linearGradient><linearGradient id="paint2_linear" x1="34.111" y1="41.536" x2="50.915" y2="41.536" gradientUnits="userSpaceOnUse"><stop stop-color="#FFB833"/><stop offset="1" stop-color="#FF964D"/></linearGradient><linearGradient id="paint3_linear" x1="34.111" y1="69.951" x2="50.915" y2="69.951" gradientUnits="userSpaceOnUse"><stop stop-color="#FFB833"/><stop offset="1" stop-color="#FF964D"/></linearGradient><linearGradient id="paint4_linear" x1="56.038" y1="69.96" x2="72.842" y2="69.96" gradientUnits="userSpaceOnUse"><stop stop-color="#FFB833"/><stop offset="1" stop-color="#FF964D"/></linearGradient><linearGradient id="paint5_linear" x1="56.038" y1="41.846" x2="72.842" y2="41.846" gradientUnits="userSpaceOnUse"><stop stop-color="#FFB833"/><stop offset="1" stop-color="#FF964D"/></linearGradient><linearGradient id="paint6_linear" x1="-8.668" y1="47.807" x2="49.179" y2="88.301" gradientUnits="userSpaceOnUse"><stop stop-color="#658BF5"/><stop offset="1" stop-color="#8DB0FF"/></linearGradient></defs></svg>
